packages/core/assets/Icons/power_input.svg

<svg viewBox="0 0 20 20" fill="none" xmlns="http://www.w3.org/2000/svg">
<path d="M2.49984 12.5C2.26373 12.5 2.06581 12.4201 1.90609 12.2604C1.74637 12.1007 1.6665 11.9028 1.6665 11.6667C1.6665 11.4306 1.74637 11.2326 1.90609 11.0729C2.06581 10.9132 2.26373 10.8333 2.49984 10.8333H4.99984C5.23595 10.8333 5.43387 10.9132 5.59359 11.0729C5.75331 11.2326 5.83317 11.4306 5.83317 11.6667C5.83317 11.9028 5.75331 12.1007 5.59359 12.2604C5.43387 12.4201 5.23595 12.5 4.99984 12.5H2.49984ZM8.33317 12.5C8.09706 12.5 7.89914 12.4201 7.73942 12.2604C7.5797 12.1007 7.49984 11.9028 7.49984 11.6667C7.49984 11.4306 7.5797 11.2326 7.73942 11.0729C7.89914 10.9132 8.09706 10.8333 8.33317 10.8333H10.8332C11.0693 10.8333 11.2672 10.9132 11.4269 11.0729C11.5866 11.2326 11.6665 11.4306 11.6665 11.6667C11.6665 11.9028 11.5866 12.1007 11.4269 12.2604C11.2672 12.4201 11.0693 12.5 10.8332 12.5H8.33317ZM14.1665 12.5C13.9304 12.5 13.7325 12.4201 13.5728 12.2604C13.413 12.1007 13.3332 11.9028 13.3332 11.6667C13.3332 11.4306 13.413 11.2326 13.5728 11.0729C13.7325 10.9132 13.9304 10.8333 14.1665 10.8333H16.6665C16.9026 10.8333 17.1005 10.9132 17.2603 11.0729C17.42 11.2326 17.4998 11.4306 17.4998 11.6667C17.4998 11.9028 17.42 12.1007 17.2603 12.2604C17.1005 12.4201 16.9026 12.5 16.6665 12.5H14.1665ZM2.49984 9.16667C2.26373 9.16667 2.06581 9.08681 1.90609 8.92708C1.74637 8.76736 1.6665 8.56944 1.6665 8.33333C1.6665 8.09722 1.74637 7.89931 1.90609 7.73958C2.06581 7.57986 2.26373 7.5 2.49984 7.5H16.6665C16.9026 7.5 17.1005 7.57986 17.2603 7.73958C17.42 7.89931 17.4998 8.09722 17.4998 8.33333C17.4998 8.56944 17.42 8.76736 17.2603 8.92708C17.1005 9.08681 16.9026 9.16667 16.6665 9.16667H2.49984Z" fill="currentColor"/>
</svg>

<svg xmlns="http://www.w3.org/2000/svg" width="20" height="20" fill="none" viewBox="0 0 20 20">
  <path fill="#201F1F" d="M2.5 12.5a.806.806 0 0 1-.594-.24.806.806 0 0 1-.24-.593c0-.236.08-.434.24-.594.16-.16.358-.24.594-.24H5c.236 0 .434.08.594.24.16.16.24.358.24.594s-.08.434-.24.593A.806.806 0 0 1 5 12.5H2.5Zm5.833 0a.806.806 0 0 1-.594-.24.806.806 0 0 1-.24-.593c0-.236.08-.434.24-.594.16-.16.358-.24.594-.24h2.5c.236 0 .434.08.594.24.16.16.24.358.24.594s-.08.434-.24.593a.806.806 0 0 1-.594.24h-2.5Zm5.833 0a.806.806 0 0 1-.593-.24.806.806 0 0 1-.24-.593c0-.236.08-.434.24-.594.16-.16.357-.24.593-.24h2.5c.237 0 .434.08.594.24.16.16.24.358.24.594s-.08.434-.24.593a.807.807 0 0 1-.594.24h-2.5ZM2.5 9.167a.806.806 0 0 1-.594-.24.806.806 0 0 1-.24-.594c0-.236.08-.434.24-.593.16-.16.358-.24.594-.24h14.166c.237 0 .434.08.594.24.16.16.24.357.24.593s-.08.434-.24.594a.807.807 0 0 1-.594.24H2.5Z"/>
</svg>
